assets/icons/image.svg

<svg xmlns="http://www.w3.org/2000/svg" width="512" height="512" viewBox="0 0 512 512"><path d="M416,64H96a64.07,64.07,0,0,0-64,64V384a64.07,64.07,0,0,0,64,64H416a64.07,64.07,0,0,0,64-64V128A64.07,64.07,0,0,0,416,64Zm-80,64a48,48,0,1,1-48,48A48.05,48.05,0,0,1,336,128ZM96,416a32,32,0,0,1-32-32V316.37l94.84-84.3a48.06,48.06,0,0,1,65.8,1.9l64.95,64.81L172.37,416Zm352-32a32,32,0,0,1-32,32H217.63L339.05,294.58a47.72,47.72,0,0,1,61.64-.16L448,333.84Z"/></svg><svg width="18" height="18" viewBox="0 0 18 18" fill="none" xmlns="http://www.w3.org/2000/svg">
<path d="M14.625 2.25H3.375C2.77846 2.25065 2.20654 2.48791 1.78473 2.90973C1.36291 3.33154 1.12565 3.90346 1.125 4.5V13.5C1.12565 14.0965 1.36291 14.6685 1.78473 15.0903C2.20654 15.5121 2.77846 15.7493 3.375 15.75H14.625C15.2215 15.7493 15.7935 15.5121 16.2153 15.0903C16.6371 14.6685 16.8743 14.0965 16.875 13.5V4.5C16.8743 3.90346 16.6371 3.33154 16.2153 2.90973C15.7935 2.48791 15.2215 2.25065 14.625 2.25ZM11.8125 4.5C12.1463 4.5 12.4725 4.59897 12.75 4.7844C13.0275 4.96982 13.2438 5.23337 13.3715 5.54172C13.4993 5.85007 13.5327 6.18937 13.4676 6.51671C13.4025 6.84406 13.2417 7.14474 13.0057 7.38074C12.7697 7.61674 12.4691 7.77746 12.1417 7.84258C11.8144 7.90769 11.4751 7.87427 11.1667 7.74655C10.8584 7.61882 10.5948 7.40253 10.4094 7.12502C10.224 6.84752 10.125 6.52126 10.125 6.1875C10.1255 5.74009 10.3034 5.31114 10.6198 4.99477C10.9361 4.6784 11.3651 4.50047 11.8125 4.5ZM3.375 14.625C3.07663 14.625 2.79048 14.5065 2.5795 14.2955C2.36853 14.0845 2.25 13.7984 2.25 13.5V11.1224L5.58422 8.15871C5.90591 7.8734 6.32428 7.72148 6.75409 7.73389C7.1839 7.7463 7.5928 7.92211 7.8975 8.22551L10.1809 10.504L6.05988 14.625H3.375ZM15.75 13.5C15.75 13.7984 15.6315 14.0845 15.4205 14.2955C15.2095 14.5065 14.9234 14.625 14.625 14.625H7.65105L11.9197 10.3563C12.222 10.0993 12.6055 9.95772 13.0022 9.95669C13.3989 9.95566 13.7832 10.0953 14.0868 10.3507L15.75 11.7366V13.5Z" fill="_COLOR_VAR_"/>
</svg>

<svg xmlns="http://www.w3.org/2000/svg" width="512" height="512"><path d="M416 64H96a64.07 64.07 0 0 0-64 64v256a64.07 64.07 0 0 0 64 64h320a64.07 64.07 0 0 0 64-64V128a64.07 64.07 0 0 0-64-64m-80 64a48 48 0 1 1-48 48 48.05 48.05 0 0 1 48-48M96 416a32 32 0 0 1-32-32v-67.63l94.84-84.3a48.06 48.06 0 0 1 65.8 1.9l64.95 64.81L172.37 416Zm352-32a32 32 0 0 1-32 32H217.63l121.42-121.42a47.72 47.72 0 0 1 61.64-.16L448 333.84Z"/></svg><svg xmlns="http://www.w3.org/2000/svg" width="18" height="18"><path d="M14.625 2.25H3.375a2.25 2.25 0 0 0-2.25 2.25v9a2.253 2.253 0 0 0 2.25 2.25h11.25a2.253 2.253 0 0 0 2.25-2.25v-9a2.253 2.253 0 0 0-2.25-2.25M11.813 4.5a1.687 1.687 0 1 1 0 3.375 1.687 1.687 0 0 1 0-3.375M3.374 14.625A1.125 1.125 0 0 1 2.25 13.5v-2.378L5.584 8.16a1.69 1.69 0 0 1 2.314.067l2.283 2.278-4.121 4.121zM15.75 13.5a1.125 1.125 0 0 1-1.125 1.125H7.651l4.269-4.269a1.68 1.68 0 0 1 2.167-.005l1.663 1.386z"/></svg>
